brandFactory_export/1.Light/Vaso_Bar_Beber_1Light.svg

<?xml version="1.0" encoding="UTF-8"?>
<svg width="24px" height="24px" viewBox="0 0 24 24" version="1.1" xmlns="http://www.w3.org/2000/svg" xmlns:xlink="http://www.w3.org/1999/xlink">
    <title>1.Light/Vaso_Bar_Beber_1Light</title>
    <g id="Symbols" stroke="none" stroke-width="1" fill="none" fill-rule="evenodd">
        <g id="1.Light/Vaso_Bar_Beber_1Light" fill="#5CB615" fill-rule="nonzero">
            <path d="M17.7142857,4.75294118 L16.1815126,4.75294118 L15.3478992,8.20168067 L17.8823529,8.20168067 L18.2386555,5.20672269 C18.2352941,4.98487395 18.0033613,4.75294118 17.7142857,4.75294118 Z M16.2252101,22.1277311 L17.7613445,9.22016807 L15.102521,9.22016807 L12.312605,20.7932773 C12.2453782,21.0655462 11.9731092,21.2369748 11.697479,21.1697479 L11.6941176,21.1697479 C11.4218487,21.1058824 11.2504202,20.8336134 11.3142857,20.5613445 L11.3142857,20.5579832 L14.0470588,9.22016807 L3.51260504,9.22016807 L5.04537815,22.0672269 C5.0487395,22.410084 5.28403361,22.6420168 5.5697479,22.6420168 L15.7042017,22.6420168 C15.989916,22.6420168 16.2218487,22.4134454 16.2252101,22.1277311 Z M3.55966387,4.75294118 C3.27394958,4.75294118 3.03865546,4.98151261 3.03865546,5.26722689 L3.39159664,8.20168067 L14.2991597,8.20168067 L15.1294118,4.75294118 L3.55966387,4.75294118 Z M21.4453782,2.60840336 C21.6907563,2.74285714 21.7815126,3.05546218 21.6436975,3.30084034 C21.502521,3.54621849 21.1932773,3.63361345 20.9445378,3.49579832 L17.0117647,1.31092437 L16.4268908,3.73445378 L17.7176471,3.73445378 C18.5680672,3.73445378 19.2638655,4.42352941 19.2638655,5.26722689 L17.2470588,22.1815126 C17.2504202,22.9680672 16.5579832,23.6537815 15.707563,23.6537815 L5.5697479,23.6537815 C4.71596639,23.6537815 4.02352941,22.9680672 4.02352941,22.1210084 L2.02015588,5.33109244 C2.01680672,4.42689076 2.7092437,3.73781513 3.56302521,3.73781513 L15.3747899,3.73781513 L16.1714286,0.423529412 C16.2386555,0.14789916 16.5142857,-0.0201680672 16.789916,0.0470588235 C16.8369748,0.0571428571 16.8806723,0.0739495798 16.9210084,0.0974789916 L21.4453782,2.60840336 L21.4453782,2.60840336 Z M8.14117647,13.8722689 C9.10252101,12.9210084 8.41008403,12.0806723 8.20504202,11.8722689 L8.11092437,11.7781513 C7.98991597,11.6638655 7.61680672,11.3512605 7.12605042,11.3512605 C6.82016807,11.3512605 6.46722689,11.4722689 6.10084034,11.8352941 C5.14621849,12.7831933 5.84537815,13.6369748 6.04033613,13.8386555 L6.13781513,13.9361345 C6.26218487,14.0605042 6.62521008,14.3630252 7.10588235,14.3630252 C7.41176471,14.3663866 7.76806723,14.2420168 8.14117647,13.8722689 L8.14117647,13.8722689 Z M8.94117647,11.1630252 C9.77142857,12.010084 10.0672269,13.394958 8.86386555,14.5882353 C8.20504202,15.2436975 7.54285714,15.3815126 7.10252101,15.3815126 C6.24537815,15.3815126 5.63697479,14.8773109 5.41176471,14.6588235 C5.37142857,14.6184874 5.33109244,14.5815126 5.29411765,14.5411765 C4.47731092,13.687395 4.18151261,12.2991597 5.37142857,11.1193277 C6.02352941,10.4705882 6.68235294,10.3361345 7.12268908,10.3361345 C7.97983193,10.3361345 8.59495798,10.8336134 8.82016807,11.0487395 C8.8605042,11.0823529 8.90420168,11.1260504 8.94117647,11.1630252 L8.94117647,11.1630252 Z M9.60672269,18.7596639 C10.1411765,18.2285714 9.75798319,17.7613445 9.64369748,17.6470588 C9.62689076,17.6302521 9.60672269,17.610084 9.58991597,17.5966387 C9.52268908,17.5327731 9.31764706,17.3579832 9.04201681,17.3579832 C8.87394958,17.3579832 8.67563025,17.4252101 8.47394958,17.6302521 C7.94285714,18.1546218 8.33277311,18.6319328 8.43697479,18.7428571 L8.4907563,18.7966387 C8.56134454,18.8638655 8.76302521,19.0352941 9.02857143,19.0352941 C9.2,19.0352941 9.39831933,18.9647059 9.60672269,18.7596639 Z M10.292437,16.8571429 L10.3764706,16.9411765 C10.9714286,17.5495798 11.2134454,18.605042 10.3294118,19.4823529 C9.85210084,19.9563025 9.36134454,20.0537815 9.02857143,20.0537815 C8.57478992,20.0537815 8.11764706,19.8588235 7.77478992,19.5260504 L7.69747899,19.4487395 C7.10588235,18.8369748 6.87394958,17.7815126 7.74789916,16.9142857 C8.21848739,16.4436975 8.71260504,16.3461953 9.04201681,16.3461953 C9.68403361,16.3428571 10.1378151,16.7058824 10.292437,16.8571429 L10.292437,16.8571429 Z" id="Vaso_Bar_Beber_1Light"></path>
        </g>
    </g>
</svg>

<svg width="24" height="24" viewBox="0 0 24 24" xmlns="http://www.w3.org/2000/svg"><path d="M17.714 4.753h-1.532l-.834 3.449h2.534l.357-2.995c-.004-.222-.236-.454-.525-.454zm-1.489 17.375L17.761 9.22h-2.658l-2.79 11.573a.51.51 0 01-.616.377h-.003a.508.508 0 01-.38-.609v-.003L14.047 9.22H3.513l1.532 12.847c.004.343.239.575.525.575h10.134a.52.52 0 00.521-.514zM3.56 4.753a.518.518 0 00-.521.514l.353 2.935h10.907l.83-3.45H3.56zm17.885-2.145a.508.508 0 11-.5.888L17.012 1.31l-.585 2.423h1.29c.851 0 1.547.69 1.547 1.533l-2.017 16.915c.003.786-.689 1.472-1.54 1.472H5.57a1.54 1.54 0 01-1.546-1.533L2.02 5.331c-.003-.904.69-1.593 1.543-1.593h11.812L16.17.424a.51.51 0 01.75-.327l4.524 2.511zM8.141 13.872c.962-.951.27-1.791.064-2l-.094-.094c-.121-.114-.494-.427-.985-.427-.306 0-.659.121-1.025.484-.955.948-.256 1.802-.06 2.004l.097.097c.124.125.487.427.968.427.306.003.662-.121 1.035-.49zm.8-2.709c.83.847 1.126 2.232-.077 3.425-.659.656-1.321.794-1.761.794-.858 0-1.466-.505-1.691-.723-.04-.04-.08-.077-.118-.118-.817-.854-1.112-2.242.077-3.422.653-.648 1.311-.783 1.752-.783.857 0 1.472.498 1.697.713.04.033.084.077.121.114zm.666 7.597c.534-.531.151-.999.037-1.113-.017-.017-.037-.037-.054-.05-.067-.064-.272-.239-.548-.239-.168 0-.366.067-.568.272-.531.525-.141 1.002-.037 1.113l.054.054c.07.067.272.238.538.238.171 0 .37-.07.578-.275zm.685-1.903l.084.084c.595.609.837 1.664-.047 2.541-.477.474-.968.572-1.3.572-.454 0-.911-.195-1.254-.528l-.078-.077c-.591-.612-.823-1.667.05-2.535.471-.47.966-.568 1.295-.568.642-.003 1.096.36 1.25.511z" fill="#5CB615" fill-rule="nonzero"/></svg>
